app/dist/common/images/proterra.svg

<svg height="18" viewBox="0 0 18 18" width="18" xmlns="http://www.w3.org/2000/svg"><path d="m0 0h18v18h-18z" fill="#5fa846"/><path d="m4 6 5-3 4.99 3h.01v6l-5 3-4.99-3h-.01zm1 .57v4.85l1.5.9v-4.62l2.5-1.53.54.34 1.02.6v-2.02l-.04-.02-1.52-.9zm6.5 1.12v-2.05l1.5.87v4.97l-2.63 1.54-1.37.8-1.43-.85-.13-.09v-2.01l1.56.9.09-.04 2.41-1.41zm-4 .57v1.46l1.5.9 1.5-.88v-1.5l-1.02-.6-.48-.29-1.5.9z" fill="#fff" fill-rule="evenodd"/></svg>

<!-- by TradingView --><svg xmlns="http://www.w3.org/2000/svg" width="18" height="18" viewBox="0 0 18 18"><path fill="#5FA846" d="M0 0h18v18H0z"/><path fill-rule="evenodd" d="M4 6l5-3 4.99 3V6H14v6L9 15l-4.99-3V12H4v-6zm1 .57v4.85l1.5.9V7.7L9 6.17l.54.34 1.02.6V5.09l-.04-.02L9 4.17l-4 2.4zm6.5 1.12V5.64l1.5.87V11.48l-2.63 1.54-1.37.8-1.43-.85-.13-.09v-2.01l1.56.9.09-.04 2.41-1.41V7.69zm-4 .57v1.46l1.5.9 1.5-.88v-1.5l-1.02-.6L9 7.35l-1.5.9z" fill="#fff"/></svg>
